X: 141007
T: WEDDING OF BALLYPORREN
Q: "Lively."
%R: jig, air
B: James Kerr "Merry Melodies" v.1 p.41 s.0 #7
Z: 2016 John Chambers <jc:trillian.mit.edu>
M: 6/8
L: 1/8
K: G
uD |\
G>AG g>fg | a>gf ug2ua | b>ag e>fg | d>ec uB2uA |\
G>AG g>fg | a>gf ug2ua | b>ag e>fg | d>ec B>cd |
e>cA A>BA | e3 uc2ue | d>BG G>AG | d3 Bcd |\
e>cA A>BA | a3 uf2uf | g>dB cAF | G3 G2 |]

%%sep 1 1 500
%%sep 1 1 500

